X:503
T:Banks of the Devon
T:Bhannerach dhon na chri
B:Burns poems & Songs, Kinsley 1969
Z:Nigel Gatherer
M:3/4
L:1/4
K:Em
B, | E>FA | B>Ad | A>DG  | F>ED |
     E>FA | B>de | B>AF  | E2  :|
z  | e>Be | g>fe | d>Ad  | F>ED |
   | e>Be | g>fe | B>e^d | e2 e |
   | e>Be | g>fe | d>Ad  | F>ED |
     E>FA | B>de | B>GF  | E2  |]
<end>
<start>
